X: 1
T:Swy Gan
M:C
L:1/8
Q:80
C:(1st time solo 2nd time all)
S:Welsh Lullaby
K:HP
| {G}A3/2B/2{g}c/2{g}e3/2|
{g}B3/2{G}A/2{g}c/2B3/2|
{G}A3/2B/2{g}c/2{g}e3/2|  !
{g}B3/2{g}c3/2{G}A3/2A3/2| [|
| {g}c3/2d/2{g}e/2c3/2|
{gfg}f3/2d/2{g}e/2c3/2|  !
{gcd}c3/2d/2{g}e/2c3/2|
{ag}a3/2{a}f3/2{g}e3/2e3/2| [|
| {G}A3/2B/2{g}c/2{g}e3/2|  !
{g}B3/2{G}A/2{g}c/2B3/2|
{G}A3/2B/2{g}c/2{g}e3/2|
{g}B3/2{g}c3/2{G}A3/2A3/2:|  !
